.icons/oomox-ad/16x16/apps/komodo.svg

<svg xmlns="http://www.w3.org/2000/svg" width="16" height="16" version="1">
 <path fill="#fecd38" d="m8.0176 0.058687a0.74666 0.74428 0 0 0 -0.3908 0.099963l-6.2536 3.5986a0.74666 0.74428 0 0 0 -0.37317 0.64429v7.1973a0.74666 0.74428 0 0 0 0.37317 0.64429l6.2537 3.5987a0.74666 0.74428 0 0 0 0.74634 0l6.2528-3.599a0.74666 0.74428 0 0 0 0.374 -0.644v-7.1974a0.74666 0.74428 0 0 0 -0.374 -0.6443l-6.2528-3.5986a0.74666 0.74428 0 0 0 -0.3556 -0.10001z"/>
 <path fill="#3f3f3f" d="m5.4321 12.955c-0.025-0.02495-0.045456-0.11681-0.045456-0.20414 0-0.19466-0.10604-0.20641-0.20457-0.02268-0.11665 0.2175-0.21218 0.15778-0.19048-0.11908 0.015607-0.19917-0.0025-0.2494-0.082286-0.22886-0.45582 0.11726-0.45854 0.11338-0.15343-0.21843 0.32602-0.35455 0.3855-0.56828 0.13638-0.49004-0.084388 0.0265-0.32972 0.06437-0.54519 0.08413-0.66356 0.06089-1.3471-0.36984-1.3471-0.84884 0-0.20206 0.35281-0.48507 0.86034-0.69014 0.2582-0.105 0.4773-0.2331 0.4869-0.2856 0.0097-0.0525-0.0911-0.1654-0.2239-0.2507-0.3043-0.1957-0.4747-0.4701-0.6546-1.0542-0.2073-0.6729-0.1614-1.8356 0.1026-2.6011 0.9157-2.6548 3.5772-3.7559 6.0886-2.5191 1.6074 0.79163 2.769 2.0453 3.022 3.2619 0.06852 0.32939 0.06184 0.40005-0.06054 0.63942-0.16097 0.31484-0.52062 0.69311-0.65901 0.69311-0.05308 0-0.18051-0.099515-0.28316-0.22115-0.26876-0.31844-1.4813-1.5166-1.9867-1.9632l-0.4313-0.381 0.0479-0.3824c0.0458-0.3658 0.0403-0.3858-0.1287-0.4627-0.2571-0.1168-0.6158-0.0021-0.6458 0.2066-0.017 0.11823 0.070975 0.25464 0.33862 0.52508l0.3616 0.3653-0.4068 0.001c-0.7385 0.0017-0.8812 0.1184-0.5177 0.4236 0.2692 0.2261 0.3628 0.4247 0.3392 0.7197l-0.020038 0.25063 0.32208-0.0165c0.2475-0.012681 0.32209 0.00702 0.32209 0.085056 0 0.055856-0.030681 0.10155-0.068192 0.10155-0.1133 0-0.076515 0.19248 0.051144 0.26755 0.092665 0.054501 0.099769 0.083079 0.031788 0.1279-0.0481 0.0318-0.0678 0.1089-0.0438 0.1714 0.066 0.1717-0.0696 0.1408-0.5977-0.1361-0.4358-0.2285-0.4904-0.2818-0.6435-0.6271-0.2711-0.6117-0.5027-0.7752-0.5027-0.3549 0 0.10408-0.064621 0.43144-0.1436 0.72747-0.25147 0.94254-0.2811 0.84438 0.25499 0.84481 0.5372 0.0003925 0.92554 0.090699 1.0538 0.24495 0.093993 0.11301 0.1053 0.42285 0.030038 0.82318-0.043694 0.23239-0.038882 0.23982 0.12826 0.19796 0.16295-0.040812 0.17112-0.030857 0.13256 0.16156-0.039656 0.19787-0.032431 0.20505 0.20609 0.20505 0.13596 0 0.2472 0.03062 0.2472 0.06805 0 0.03742-0.024825 0.06805-0.055157 0.06805-0.03035 0-0.11432 0.04317-0.18662 0.09592-0.129 0.09413-0.12905 0.09858-0.0025 0.23816 0.1474 0.16252 0.13024 0.16865-0.40357 0.14415-0.4029-0.018-0.4874-0.074-0.5478-0.364-0.0703-0.3366-0.2263-0.5471-0.3374-0.4551-0.2108 0.1745 0.1973 0.8941 0.7047 1.2421 0.71698 0.49223 1.5349 0.60755 2.2877 0.32255 0.51181-0.19377 1.2547-0.91288 1.6648-1.6115 0.45698-0.77854 0.5569-0.76487 0.39073 0.053444-0.277 1.3606-1.214 2.3846-2.589 2.8266-0.4414 0.143-0.6866 0.178-1.2329 0.179-1.1386 0.002-1.7902-0.318-2.8446-1.394-0.6633-0.678-0.8612-0.73-0.5218-0.138l0.2176 0.379-0.2201 0.67c-0.121 0.369-0.2283 0.67-0.2383 0.67-0.0101 0-0.0388-0.02-0.0638-0.045zm0.3027-3.6709c-0.5915-1.1801-0.7232-1.6556-0.7232-2.6123 0-0.71762 0.015175-0.81121 0.183-1.1286 0.50789-0.96044 1.5934-1.5217 2.9482-1.5242 0.63531-0.00119 1.3545 0.11058 1.6422 0.25522 0.35439 0.17815 0.8598 0.6409 1.3762 1.2601 0.60435 0.72457 0.65341 0.86261 0.21085 0.59337-0.123-0.0747-0.29-0.1359-0.371-0.1361-0.262-0.0004-0.359-0.0764-0.404-0.3161-0.032-0.1721-0.127-0.2981-0.356-0.4722-0.5162-0.3935-0.7127-0.2165-0.3561 0.3208 0.30089 0.45329 1.9586 2.0462 2.1018 2.0196 0.20821-0.0387 0.36747-0.45538 0.33361-0.8728-0.057-0.7064-0.555-1.4407-1.335-1.9669-0.711-0.4802-2.0601-1.0934-2.6679-1.2129-1.9367-0.3808-3.827 0.8238-4.105 2.6158-0.1665 1.0732 0.4282 2.4921 1.5418 3.6787 0.1847 0.1969 0.3473 0.3464 0.3612 0.3324 0.0139-0.013-0.1573-0.3889-0.3803-0.8339z"/>
</svg>

<svg xmlns="http://www.w3.org/2000/svg" width="16" height="16" version="1">
 <path style="fill:#f9a825" d="M 8.0176,0.05919 A 0.74666,0.74428 0 0 0 7.6268,0.15915 L 1.3732,3.7577 A 0.74666,0.74428 0 0 0 1,4.402 V 11.599 A 0.74666,0.74428 0 0 0 1.3732,12.243 L 7.6269,15.842 A 0.74666,0.74428 0 0 0 8.3732,15.842 L 14.626,12.243 A 0.74666,0.74428 0 0 0 15,11.599 V 4.4019 A 0.74666,0.74428 0 0 0 14.626,3.7576 L 8.3732,0.15903 A 0.74666,0.74428 0 0 0 8.0176,0.05902 Z"/>
 <path style="fill:#ffffff" d="M 5.4321,12.955 C 5.4071,12.93 5.3866,12.838 5.3866,12.751 5.3866,12.556 5.2806,12.544 5.1821,12.728 5.0654,12.946 4.9699,12.886 4.9916,12.609 5.0072,12.41 4.9891,12.36 4.9093,12.38 4.4535,12.498 4.4508,12.494 4.7559,12.162 5.0819,11.807 5.1414,11.594 4.8923,11.672 4.8079,11.698 4.5625,11.736 4.3471,11.756 3.6835,11.817 3,11.386 3,10.907 3,10.705 3.3528,10.422 3.8603,10.217 4.1185,10.112 4.3376,9.9843 4.3472,9.9318 4.3569,9.8793 4.2561,9.7664 4.1233,9.6811 3.819,9.4854 3.6486,9.211 3.4687,8.6269 3.2614,7.954 3.3073,6.7913 3.5713,6.0258 4.487,3.371 7.1485,2.2699 9.6599,3.5067 11.267,4.2984 12.429,5.552 12.682,6.7686 12.75,7.098 12.744,7.1687 12.621,7.408 12.46,7.7229 12.101,8.1012 11.962,8.1012 11.909,8.1012 11.782,8.0016 11.679,7.88 11.41,7.5616 10.198,6.3634 9.6925,5.9168 L 9.2612,5.5358 9.3091,5.1534 C 9.3549,4.7876 9.3494,4.7676 9.1804,4.6907 8.9233,4.5739 8.5646,4.6886 8.5346,4.8973 8.5176,5.0155 8.6056,5.1519 8.8732,5.4224 L 9.2348,5.7877 8.828,5.7887 C 8.0895,5.7904 7.9468,5.9071 8.3103,6.2123 8.5795,6.4384 8.6731,6.637 8.6495,6.932 L 8.6295,7.1826 8.9516,7.1661 C 9.1991,7.1534 9.2736,7.1731 9.2736,7.2512 9.2736,7.307 9.243,7.3527 9.2055,7.3527 9.0922,7.3527 9.1289,7.5452 9.2566,7.6203 9.3493,7.6748 9.3564,7.7033 9.2884,7.7482 9.2403,7.78 9.2206,7.8571 9.2446,7.9196 9.3106,8.0913 9.175,8.0604 8.6469,7.7835 8.2111,7.555 8.1565,7.5017 8.0034,7.1564 7.7323,6.5447 7.5007,6.3812 7.5007,6.8015 7.5007,6.9055 7.4361,7.2329 7.3571,7.5289 7.1056,8.4715 7.076,8.3733 7.6121,8.3737 8.1493,8.3741 8.5376,8.4644 8.6659,8.6187 8.7599,8.7317 8.7712,9.0415 8.6959,9.4419 8.6522,9.6743 8.657,9.6817 8.8242,9.6398 8.9871,9.599 8.9953,9.609 8.9567,9.8014 8.9171,9.9993 8.9243,10.006 9.1628,10.006 9.2988,10.006 9.41,10.037 9.41,10.074 9.41,10.111 9.3852,10.142 9.3549,10.142 9.3245,10.142 9.2406,10.185 9.1683,10.238 9.0393,10.332 9.0392,10.337 9.1658,10.476 9.3132,10.639 9.296,10.645 8.7622,10.62 8.3593,10.602 8.2748,10.546 8.2144,10.256 8.1441,9.9202 7.9881,9.7097 7.877,9.8017 7.6662,9.9762 8.0743,10.695 8.5817,11.043 9.2987,11.536 10.117,11.651 10.869,11.366 11.381,11.172 12.124,10.453 12.534,9.7548 12.991,8.9763 13.091,8.99 12.925,9.8083 12.648,11.168 11.711,12.192 10.336,12.634 9.8945,12.777 9.6493,12.812 9.103,12.813 7.9644,12.815 7.3128,12.495 6.2584,11.419 5.5951,10.741 5.3972,10.689 5.7366,11.281 L 5.9542,11.66 5.7341,12.33 C 5.6131,12.699 5.5058,13 5.4958,13 5.4857,13 5.457,12.98 5.432,12.955 Z M 5.7348,9.2846 C 5.1433,8.1045 5.0116,7.629 5.0116,6.6723 5.0116,5.9547 5.0268,5.8611 5.1946,5.5437 5.7025,4.5833 6.788,4.022 8.1428,4.0195 8.7781,4.0183 9.4973,4.1301 9.785,4.2747 10.139,4.4529 10.645,4.9156 11.161,5.5348 11.766,6.2594 11.815,6.3974 11.372,6.1282 11.249,6.0535 11.082,5.9923 11.001,5.9921 10.739,5.9917 10.642,5.9157 10.597,5.676 10.565,5.5039 10.47,5.3779 10.241,5.2038 9.7249,4.8103 9.5284,4.9873 9.885,5.5246 10.186,5.9779 11.844,7.5708 11.987,7.5442 12.195,7.5055 12.354,7.0888 12.32,6.6714 12.263,5.965 11.765,5.2307 10.985,4.7045 10.274,4.2243 8.9253,3.6111 8.3175,3.4916 6.3808,3.1108 4.4905,4.3154 4.2125,6.1074 4.046,7.1806 4.6407,8.5995 5.7543,9.7861 5.939,9.983 6.1016,10.132 6.1155,10.118 6.1294,10.105 5.9582,9.7296 5.7352,9.2846 Z"/>
</svg>
